out/images/aboutCard3.svg

<svg fill="none" height="95" viewBox="0 0 98 95" width="98" xmlns="http://www.w3.org/2000/svg"><path d="m15.7836 53.4004c0-3.4512 2.9391-6.2715 6.5355-6.2715 3.5965 0 6.5356 2.7832 6.5356 6.2715 0 3.4512-2.9391 6.2715-6.5356 6.2715-3.5964 0-6.5355-2.7832-6.5355-6.2715zm15.8941-3.8223v18.1094h52.4778v-13.248c-.0387-2.7461-2.359-4.8985-5.2207-4.8985zm-6.0328 18.1094c1.7789 0 3.2098-1.373 3.2098-3.0801 0-1.707-1.4309-3.0801-3.2098-3.0801h-9.2812c-1.7789 0-3.2098 1.3731-3.2098 3.0801 0 1.7071 1.4309 3.0801 3.2098 3.0801zm61.643 13.0254v13.8047h8.5078v-43.752c0-2.2636-1.8949-4.082-4.2539-4.082s-4.2539 1.8184-4.2539 4.082v20.0762h-76.4543v-28.3516c0-2.2636-2.04961-4.082-4.4086-4.082-2.35898 0-4.17656 1.8184-4.17656 4.082v52.0274h8.58516v-13.8047zm-26.993-79.970712c-2.823 0-6.8062 1.076172-9.6679 3.859372l3.4031 5.97464c1.4695-1.78128 3.7125-2.93167 6.2648-2.93167 2.591 0 4.8727 1.15039 6.3422 2.96877l3.3645-6.16018c-2.5137-2.59765-6.9996-3.710932-9.7067-3.710932zm-.9668 4.416012h-1.8949v-1.85547h1.8949v-1.81835h1.8949v1.81835h1.895v1.81836h-1.895v1.81836h-1.8949zm7.077 10.5391c0-3.2657-2.7457-5.90042-6.1488-5.90042-3.4032 0-6.1489 2.63472-6.1489 5.90042 0 3.2656 2.7457 5.9004 6.1489 5.9004 3.4031 0 6.1488-2.6348 6.1488-5.9004zm-12.027 7.6074c-4.2926.0371-6.7676 3.3769-7.3476 5.2695l-5.2207 16.4766h5.298l3.8672-12.6543h2.7457l-3.8285 12.6172h20.8441l-3.8285-12.6172h2.7457l3.9445 12.6543h5.2207l-5.2593-16.4766c-.5414-1.8554-2.9778-5.1582-7.193-5.2324zm-39.1359 3.7851c7.541 0 13.6512-5.8632 13.6512-13.0996 0-7.2734-6.1102-13.136684-13.6512-13.136684-7.54103 0-13.65118 5.863284-13.65118 13.099584 0 7.2364 6.11015 13.1367 13.65118 13.1367zm0-3.2656c-5.68478 0-10.28673-4.416-10.28673-9.8711 0-5.41794 4.60195-9.87107 10.28673-9.87107 5.6848 0 10.2867 4.45313 10.2867 9.87107 0 5.4551-4.6019 9.8711-10.2867 9.8711zm6.8062-11.207c.5028-.2227.7348-.8164.5028-1.2988-.2321-.4825-.8508-.7051-1.3535-.4825l-5.2594 2.375v-5.90035c0-.55664-.4641-1.00196-1.0442-1.00196-.58 0-1.0441.44532-1.0441 1.00196v7.60745c.0387.2597.1934.5195.4641.6679.3093.1856.6961.2227.9668.0743z" fill="#fff" stroke="#fff" stroke-width="3.125"/></svg>

<svg width="98" height="95" viewBox="0 0 98 95" fill="none" xmlns="http://www.w3.org/2000/svg">
<path d="M15.7836 53.4004C15.7836 49.9492 18.7227 47.1289 22.3191 47.1289C25.9156 47.1289 28.8547 49.9121 28.8547 53.4004C28.8547 56.8516 25.9156 59.6719 22.3191 59.6719C18.7227 59.6719 15.7836 56.8887 15.7836 53.4004ZM31.6777 49.5781V67.6875H84.1555V54.4395C84.1168 51.6934 81.7965 49.541 78.9348 49.541L31.6777 49.5781ZM25.6449 67.6875C27.4238 67.6875 28.8547 66.3145 28.8547 64.6074C28.8547 62.9004 27.4238 61.5273 25.6449 61.5273H16.3637C14.5848 61.5273 13.1539 62.9004 13.1539 64.6074C13.1539 66.3145 14.5848 67.6875 16.3637 67.6875H25.6449ZM87.2879 80.7129V94.5176H95.7957V50.7656C95.7957 48.502 93.9008 46.6836 91.5418 46.6836C89.1828 46.6836 87.2879 48.502 87.2879 50.7656V70.8418H10.8336V42.4902C10.8336 40.2266 8.78399 38.4082 6.425 38.4082C4.06602 38.4082 2.24844 40.2266 2.24844 42.4902V94.5176H10.8336V80.7129H87.2879ZM60.2949 0.742188C57.4719 0.742188 53.4887 1.81836 50.627 4.60156L54.0301 10.5762C55.4996 8.79492 57.7426 7.64453 60.2949 7.64453C62.8859 7.64453 65.1676 8.79492 66.6371 10.6133L70.0016 4.45312C67.4879 1.85547 63.002 0.742188 60.2949 0.742188ZM59.3281 5.1582H57.4332V3.30273H59.3281V1.48438H61.223V3.30273H63.118V5.12109H61.223V6.93945H59.3281V5.1582ZM66.4051 15.6973C66.4051 12.4316 63.6594 9.79688 60.2563 9.79688C56.8531 9.79688 54.1074 12.4316 54.1074 15.6973C54.1074 18.9629 56.8531 21.5977 60.2563 21.5977C63.6594 21.5977 66.4051 18.9629 66.4051 15.6973ZM54.3781 23.3047C50.0855 23.3418 47.6105 26.6816 47.0305 28.5742L41.8098 45.0508H47.1078L50.975 32.3965H53.7207L49.8922 45.0137H70.7363L66.9078 32.3965H69.6535L73.598 45.0508H78.8187L73.5594 28.5742C73.018 26.7188 70.5816 23.416 66.3664 23.3418L54.3781 23.3047ZM15.2422 27.0898C22.7832 27.0898 28.8934 21.2266 28.8934 13.9902C28.8934 6.7168 22.7832 0.853516 15.2422 0.853516C7.70117 0.853516 1.59102 6.7168 1.59102 13.9531C1.59102 21.1895 7.70117 27.0898 15.2422 27.0898ZM15.2422 23.8242C9.55742 23.8242 4.95547 19.4082 4.95547 13.9531C4.95547 8.53516 9.55742 4.08203 15.2422 4.08203C20.927 4.08203 25.5289 8.53516 25.5289 13.9531C25.5289 19.4082 20.927 23.8242 15.2422 23.8242ZM22.0484 12.6172C22.5512 12.3945 22.7832 11.8008 22.5512 11.3184C22.3191 10.8359 21.7004 10.6133 21.1977 10.8359L15.9383 13.2109V7.31055C15.9383 6.75391 15.4742 6.30859 14.8941 6.30859C14.3141 6.30859 13.85 6.75391 13.85 7.31055V14.918C13.8887 15.1777 14.0434 15.4375 14.3141 15.5859C14.6234 15.7715 15.0102 15.8086 15.2809 15.6602L22.0484 12.6172Z" fill="white" stroke="white" stroke-width="3.125"/>
</svg>
